X:65
T: Torn Jacket (The)
S: Connie O'Connell via Willie & Siobhan Kelly
Z: B.Black
R: reel
M: 4/4
L: 1/8
K: D
F3 A dfed |cA A2 (3Bcd ed |FAAF dfed |cAGE FDDE |
FEFA dfed |cA A2 (3Bcd ec |dcde fded |cAGE ED D2 :|
FAdf a3 f |g3 f gfed |cA A2 (3Bcd ed |g2 ed cAGE |
FAdf a3 f |g3 f gfef |g2 ba gfed |cAGE ED D2 :|
